X:1
T:Amante Felice-Bella mia
T:Giovanni Stefani
T:Source : Affetti amorosi-Canzonette ad une voce sola---Venetia---A.Vincenti---1621. Editor : André Vierendeels (17/11/15).
T:Notes : Original clefs : C1, F4 Editorial accidentals above tha staff Note values have been halved Alfabetto et intavolatura per chitarra Spagnola Terza impressione (first print : 1618) Sopra l'aria della Ciaccona
T:Bella mia questo-Amante Felice
C:Giovanni Stefani
%%score 1 { ( 2 3 ) | 4 }
L:1/8
Q:1/4=80
M:3/4
K:F
V:1 treble nm="Soprano" snm="S"
V:2 treble nm="BC" snm="BC"
V:3 treble 
V:4 bass 
V:1
 z2 c2 c2 | d2 d2 d2 | c4 B2 | A4 A2 | G4 F2 | F2 F2 G2 | G4 F2 | F4 F2 :: c4 c2 | d4 f2 | f4 e2 | %11
w: Bel- la|mi- a que-|sto mio|co- re,|per voi|vi- ve e|per voi|mo- re.|Che voi|se- te|per mia|
w: Col bel|gu- ar- do|voi fe-|ri- te,|col bel|gu- ar- do|mi gua-|ri- te.|Quan- do|dun- que|mi mi-|
w: O d'a-|mor mi- ra-|col no-|o- vo,|vi- ta'e|mor- te'à un|tem- po'io|pro- vo.|Ne so|qua- l'e|piu gra-|
w: An- z'in|dub- bio an-|cor io|vi- vo,|s'io son|mor- to, o|s'io son|vi- vo.|Ma sia|quel che|vuol il|
 f4 f2 | z2 f2 e2 | d4 d2 | c4 B2 | A4 A2 | z2 G2 G2 | F4 G2 | G4 F2 | F4 !fermata!F2 :| %20
w: sor- te,|la mia|vi- ta'e|la mia|mor- te,|la mia|vi- ta'e|la mia|mor- te.|
w: ra- te,|mor- t'e|vi- ta'oh-|i mi|da- te,|mor- t'e|vi- ta'oh-|i mi|da- te.|
w: di- ta,|se la|mor- te'o|pur la|vi- ta,|se la|mor- te'o|pur la|vi- ta.|
w: fa- to,|vi- vo'e|mor- to'a|voi m'ho|da- to,|vi- vo'e|mor- to'a|voi m'ho|da- to.|
V:2
 c6 | d6 | e6 | c6 | c4 A2 | F4 G2 | G4 F2 | F6 :: A6 | B6 | G6 | A6 | F4 E2 | F6 | c6 | c6 | c6 | %17
 d4 d2 | c4 B2 | !fermata!A6 :| %20
V:3
 A6 | F6 | G6 | A6 | G4 A2 | D6 | E4 C2 | C6 :: F6 | D6 | C6 | C6 | C6 | D6 | G6 | A6 | G6 | %17
 A4 F2 | E4 F2 | C6 :| %20
V:4
 F,4 F,2 | B,,6 | C,6 | F,6 | _E,4 D,2 | B,,2 B,,2 A,,2 | C,4 C,2 | F,,6 :: F,,6 | B,,6 | C,6 | %11
 F,,6 | A,,6 | B,,6 | C,6 | F,6 | _E,6 | D,4 B,,2 | C,6 | F,,4 !fermata!F,,2 :| %20

